X:430
T:Providence, The
M:C|
L:1/8
Q:200
S:THSP
R:reel
H:
K:D
"A"~E3F "D"DEFA|d2fd gdfd|edBd A2Bd|"G"(3Bcd "A"AF GFED|
~E3F "D"DEFA|d2fd gdfd|edBd A2Bd
|1 "A"(3Bcd AF "D"EFD2:|2 "A"(3Bcd "D"AF EFDg|:
"D"fd~d2 fdad|fddg "A"ecAg|"D"fd~d2 Adfd|"A"ceag "D"fd~d2|
fgaf "G"gfec|"D"dBAF "G"G2FG|"D"~A2^GB ABde
|1 "A"faeg "D"fddg:|2 "A"faeg "D"fdAF|]
